X:1
T: If All The World Were Paper
N:
C:
S:3 times
A:
O:
R:
M:6/8
K:D
I:speed 180
%W: A
% voice 1 (1 lines, 29 notes)
K:D
M:6/8
L:1/16
A2 |B4 A2 B4 c2 d6 D6 F4 E2 F4 G2 A6A4 F2 |G4 F2 G4 A2 B4 G2 E4 d2 e4 A2 B4 c2 d6d4 A2 |
%W:
% voice 1 (1 lines, 28 notes)
B4 A2 B4 c2 d6 D6 F4 E2 F4 G2 A6A4 F2 |G4 F2 G4 A2 B4 G2 E4 d2 e4 A2 B4 c2 d6d4 d2 |
%W: B
% voice 1 (1 lines, 29 notes)
c4 B2 c4 d2 e6 A4 A2 d4 c2 d4 e2 f6f4 f2 |g4 f2 e4 d2 c4 B2 A4 e2 a4 A2 B4 c2 d6d4 d2 |
%W:
% voice 1 (1 lines, 28 notes)
c4 B2 c4 d2 e6 A4 A2 d4 c2 d4 e2 f6f4 f2 |g4 f2 e4 d2 c4 B2 A4 e2 a4 A2 B4 c2 d6d4 ||
